X:1
T:Wanderlied
T:Friedrich Hegar
T:Justinus Kerner
T:Wanderlied
T:CPDL   —   Creative Commons Attribution Non Commercial 3.0
T:CPDL   —   Creative Commons Attribution Non Commercial 3.0
T:CPDL   —   Creative Commons Attribution Non Commercial 3.0
C:Friedrich Hegar
Z:Justinus Kerner
Z:CPDL   —   Creative Commons Attribution Non Commercial 3.0
%%score [ ( 1 2 ) ( 3 4 ) ]
L:1/8
Q:1/4=90
M:3/4
K:D
V:1 treble nm="Sopran\nAlt"
V:2 treble 
V:3 bass nm="Tenor\nBass"
V:4 bass 
V:1
"^Frisch"!f! DF | A2 A2 BA | FA d3 F | AG GF GA | F3 z DF | A2 A2 BA | FA d3 F | AG GF GA | %8
w: 1.  Wohl- *|auf, noch ge- *|trun- * ken den|fun- * keln- * den *|Wein! A- *|de nun, ihr _|Lie- * ben! Ge-|schie- * den * muss *|
w: 2.  Die *|Son- ne, sie _|blei- * bet am|Him- * mel * nicht *|stehn; es _|treibt sie durch _|Län- * der und|Mee- * re * zu *|
w: 3.  Mit *|ei- len- den _|Wol- * ken der|Vo- * gel * dort *|zieht und _|singt in der _|Fer- * ne ein|hei- * mat- * lich *|
w: 4.  Da *|grü- ßen ihn _|Vö- * gel, be-|kannt * ü- * berm *|Meer, sie _|flo- gen von _|Flu- * ren der|Hei- * mat * hie- *|
w: 5.  Die *|Vö- gel, die _|ken- * nen sein|vä- * ter- * lich *|Haus. Die _|Blu- men einst _|pflanzt _ er der|Lie- * be * zum *|
 F3 z!mf! F2 | Ec c3 c | cB B3 B | Bc d2 ^G2 | A4 E2 | Ec c3 c | cB B3 B | Bc d2 ^G2 | %16
w: sein. A-|de _ nun, *|Ber- * ge, *|vä- * ter- lich|Haus! Es|treibt _ in *|Fer- * ne *|~mäch- * tig hin-|
w: gehn. Die|Wo- * ge *|haf- * tet *|ein- * sa- men|Strand; die|Stür- * me, *|brau- * sen *|~Macht * durch das|
w: Lied. So|treibt * es *|Bur- * schen *|Wäl- * der und|Feld, zu|glei- * chen *|Mut- * ter, *|wan- * dern- den|
w: her; da|duf- * ten *|Blu- * men *|trau- * lich um|ihn, sie|trie- * ben *|Lan- * de *|Lüf- * te da-|
w: Strauß; und|Lie- * be, *|folgt * ihm, *|geht * ihm zur|Hand: so|wird * ihm *|Hei- * mat *|fer- * ne- ste|
 !fermata!A4 |!p! A2 | BA =G3 E | FA d3 F | AG GF GA | F4!f! A2 | Af f3 f | f2 e3 e | ef g2 c2 | %25
w: aus.|A-|de * nun, ihr|Ber- * ge, du|vä- * ter- * lich *|~Haus! Es|treibt _ in die|Fer- ne *|mäch- * tig hin-|
w: Land.|Die|Wo- * ge nicht|haf- * tet am|ein- * sa- * men *|~~Strand; die|Stür- * me, sie|brau- sen *|Macht * durch das|
w: Welt.|So|treibt * es den|Bur- * schen durch|Wäl- * der * und *|~Feld zu|glei- * chen der|Mut- ter, *|wan- * dern- den|
w: hin;-|da|duf- * ten die|Blu- * men ver|trau- * lich * um *|~ihn, sie|trie- * ben vom|Lan- de *|Lüf- * te da-|
w: Land;|und|Lie- * be, die|folgt * ihm, sie|geht * ihm * zur *|~Hand: so|wird * ihm zur|Hei- mat *|fer- * ne- ste|
 !fermata!d4 z!mf![Q:1/4=72]"^etwas ruhiger" A | (Af d2) |:!p![Q:1/4=90]"^a tempo" A>A | %28
w: aus, hin-|aus. _ _|1\-5. Ju vi-|
w: Land, das|Land. _ _|_ _|
w: Welt, der|Welt. _ _|_ _|
w: hin, da-|hin. _ _|_ _|
w: Land, das|Land. _ _|_ _|
 d>d d2 c>c | B>B B2 A>A | G>F G>F G>B | A4 A>A | f>f f2 e>e | d>d d2 f>f | e>d e>d e>f | d4 :| %36
w: val- le- ra, ju vi-|val- le- ra, ju vi-|val- le- ral- le- ral- le-|ra, ju vi-|val- le- ra, ju vi-|val- le- ra, ju vi-|val- le- ral- le- ral- le-|ra.|
w: ||||||||
w: ||||||||
w: ||||||||
w: ||||||||
V:2
 DF | A2 A2 BA | FA d3 D | E2 C2 E2 | D3 x DF | A2 A2 BA | FA d3 F | E2 E2 C2 | D3 x D2 | %9
w: |||||||||
w: |||||||||
w: |||||||||
w: |||||||||
w: |||||||||
 CA A2 G2 | F2 D2 F2 | E2 ^G2 ED | C4 B,2 | E2 F2 =G2 | F2 F2 F2 | ^GA G2 E2 | E4 | A2 | =GF E3 E | %19
w: * * * ihr|* * du|||* * die|* * mich|||||
w: * * * nicht|* * am|||* * sie|* * mit|||||
w: * * * den|* * durch|||* * der|* * der|||||
w: * * * die|* * ver-|||* * vom|* * die|||||
w: * * * die|* * sie|||* * zur|* * das|||||
 DF A3 D | C2 E2 C2 | D4 A2 | FA A3 A | G2 B2 G2 | A2 A2 G2 | F4 x A | (FA F2) |: A>A | %28
w: ||||* * mich|||||
w: ||||* * mit|||||
w: ||||* * der|||||
w: ||||* * die|||||
w: ||||* * das|||||
 F>F F2 A>A | G>G G2 D>D | E>^D E>D E>G | F4 A>A | A>A A2 G>G | F>F F2 A>A | B>B G>G G>A | F4 :| %36
w: ||||||||
w: ||||||||
w: ||||||||
w: ||||||||
w: ||||||||
V:3
!f! D,F, | A,2 A,2 B,A, | F,A, D3 A, | A,2 A,2 A,2 | A,3 z D,F, | A,2 A,2 B,A, | F,A, D3 F, | %7
 B,2 A,2 A,2 | A,3 z!mf! A,2 | A,E E3 E | D2 B,2 A,2 | ^G,2 B,2 B,2 | A,4 ^G,2 | A,2 A,2 ^A,2 | %14
 B,2 D2 B,2 | DC B,2 D2 | C4 |!p! A,2 | A,2 C2 A,2 | A,2 A,2 A,2 | A,2 E,2 A,2 | A,4!f! A,2 | %22
 D2 A,2 =C2 | B,2 E2 B,2 | CD E2 A,2 | !fermata!A,4 z!mf! A, | (D2 A,2) |:!p! A,>A, | %28
 A,>A, A,2 D>D | D>D D2 A,>A, | B,>B, A,>A, C>A, | A,4 A,>A, | D>D D2 C>C | D>D D2 D>D | %34
 B,>B, B,>B, C>A, | A,4 :| %36
V:4
 D,F, | A,2 A,2 B,A, | F,A, [D,D]3 A, | A,2 A,2 A,2 | A,3 x D,F, | A,2 A,2 B,A, | F,A, [D,D]3 F, | %7
 E,2 C,2 A,,2 | D,3 x F,2 | A,2 A,2 ^A,2 | B,2 B,,2 D,2 | E,2 B,2 E,2 | (F,2 E,2) D,2 | %13
 C,2 F,2 E,2 | D,2 B,,2 D,2 | E,2 B,2 E,2 | !fermata!A,4 | A,2 | C,2 A,,2 C,2 | D,2 F,2 D,2 | %20
 E,2 C,2 A,,2 | (D,2 F,2) A,2 | D2 D,2 ^D,2 | E,2 G,2 E,2 | A,2 A,2 A,,2 | D,4 x A, | (DA, D,2) |: %27
 A,>A, | D,>D, D,2 F,>F, | G,>G, G,2 F,>F, | E,>E, C,>C, A,,>A,, | D,4 A,>A, | D>D D2 A,>A, | %33
 B,>B, B,2 F,>F, | G,>G, E,>E, A,,>A,, | D,4 :| %36

